X:1
T:The Death of a Romish Lady
M:4/4
L:1/4
K:A
 A| F3/2 E/2 F A| E3/2- F/2 A A| c c B c| F3 A| F3/2 E/2 F A| E3/2- F/2 A A/2A/2|\
 c c B B| A3 B| c3/2 B/2 c e| B3/2- c/2 B c| A3/2 B/2 A E| F3 A| F3/2 E/2 F A|\
 E3/2- F/2 A A| c c B B| A3||
